X: 7
T: The Belharbour
R: reel
M: 4/4
L: 1/8
K: Gmaj
DGGD ~G3A|(3Bcd gd egdc|BDGB DGBG|A2AB AGEG|
DGGD ~G3z|Bdgd (3efg dc|(3Bcd ed g2ed| g2ed BGGz
|:gd~d2 ed (3Bcd|gbaf gfef|g~d3 edBG|FGAB cdef|
g2fa gdBd|gbaf gfed|(3Bcd ed g2ed | g2ed BG3


Tune 622	Setting 13640

